icons/desktop/20/diamond-20.svg

<svg width="20" height="20" viewBox="0 0 20 20" fill="none" xmlns="http://www.w3.org/2000/svg">
<path fill-rule="evenodd" clip-rule="evenodd" d="M3.72792 3.59964C7.87784 2.79469 12.1888 2.7994 16.3207 3.61039C17.1556 3.77337 17.8828 4.29985 18.3148 5.05472L19.6068 7.31742C20.2736 8.48437 20.0753 9.96317 19.1254 10.9141L12.1146 17.9248C11.5506 18.4888 10.7994 18.8008 10.0004 18.8008C9.20155 18.8007 8.45102 18.4887 7.88612 17.9239L0.875378 10.9151C-0.0754043 9.96312 -0.272892 8.48431 0.393932 7.31742L1.68592 5.0557C2.11895 4.29788 2.86305 3.76662 3.72792 3.59964ZM9.12342 16.6846L9.12538 16.6856V10.4854C6.886 10.4512 4.64028 10.2818 2.4203 9.98246L9.12342 16.6846ZM17.5805 9.97953C15.3616 10.2794 13.1161 10.4489 10.8754 10.4844V16.6846L17.5805 9.97953ZM9.9994 4.7471C9.60941 4.74711 9.21901 4.75576 8.8285 4.77054L6.61757 8.63871C7.73962 8.70779 8.86315 8.7432 9.98378 8.7432H9.99842C11.1061 8.7432 12.2165 8.70819 13.3246 8.64066L11.1098 4.76566C10.7396 4.75241 10.3692 4.74417 9.9994 4.74417V4.7471ZM15.2523 8.48636C16.1935 8.39576 17.1315 8.28222 18.0639 8.14359L16.7943 5.92093C16.6153 5.60911 16.3197 5.39125 15.9828 5.32425C15.067 5.14483 14.1405 5.00755 13.2094 4.91117L15.2523 8.48636ZM6.72596 4.92191C5.8321 5.01643 4.94169 5.14807 4.05995 5.31937C3.69696 5.38937 3.38446 5.60987 3.20546 5.92386L1.93397 8.14749C2.84814 8.28314 3.76765 8.39408 4.68983 8.48343L6.72596 4.92191Z" fill="black"/>
</svg>

<!-- This Source Code Form is subject to the terms of the Mozilla Public
   - License, v. 2.0. If a copy of the MPL was not distributed with this
   - file, You can obtain one at http://mozilla.org/MPL/2.0/. -->
<svg xmlns="http://www.w3.org/2000/svg" width="20" height="20" fill="context-fill" fill-opacity="context-fill-opacity" viewBox="0 0 20 20">
    <path fill-rule="evenodd" d="M3.728 3.6c4.15-.805 8.46-.8 12.593.01.835.163 1.562.69 1.994 1.445l1.292 2.262a3 3 0 0 1-.482 3.597l-7.01 7.01a2.97 2.97 0 0 1-2.115.877c-.798 0-1.549-.312-2.114-.877l-7.01-7.009a3 3 0 0 1-.482-3.598l1.292-2.261A3 3 0 0 1 3.728 3.6m5.395 13.085h.002v-6.2a57 57 0 0 1-6.705-.503zm8.458-6.705c-2.22.3-4.465.469-6.706.504v6.2zM9.999 4.747q-.585 0-1.17.024L6.618 8.639q1.684.104 3.366.104h.014q1.663 0 3.327-.102L11.11 4.766q-.555-.021-1.11-.022zm5.253 3.74q1.413-.136 2.812-.343l-1.27-2.223a1.22 1.22 0 0 0-.811-.597 31 31 0 0 0-2.774-.413zM6.726 4.921q-1.342.14-2.666.397c-.363.07-.676.29-.855.605L1.934 8.147q1.372.203 2.756.336z" clip-rule="evenodd" />
</svg>
